svgs/thin/arrows-cross.svg

<svg xmlns="http://www.w3.org/2000/svg" viewBox="0 0 448 512"><!--! Font Awesome Pro 6.3.0 by @fontawesome - https://fontawesome.com License - https://fontawesome.com/license (Commercial License) Copyright 2023 Fonticons, Inc. --><path d="M440 32h-159.1c-4.438 0-7.959 3.586-7.959 7.992c0 4.422 3.578 8 7.996 8h140.6L2.451 466.2c-7.467 7.461 3.814 18.8 11.31 11.31L432 59.3v140.6c0 4.422 3.578 8 7.994 8C444.4 207.9 448 204.4 448 199.1V39.99C448 35.58 444.4 32 440 32zM167.4 210.8c3.123 3.121 8.185 3.219 11.31 .0977C181.9 207.7 181.9 202.6 178.8 199.4L13.76 34.45C6.303 26.98-5.033 38.27 2.457 45.76L167.4 210.8zM440 304.1c-4.418 0-7.996 3.578-7.996 7.992v140.6L280.6 301.2c-3.123-3.121-8.184-3.02-11.31 .1016c-3.123 3.125-3.125 8.086-.002 11.21l151.5 151.5h-140.6c-4.418 0-7.996 3.578-7.996 7.996S275.6 480 280 480h159.1C444.4 480 448 476.4 448 472V312C448 307.6 444.4 304.1 440 304.1z"/></svg>

<svg xmlns="http://www.w3.org/2000/svg" viewBox="0 0 448 512"><!-- Font Awesome Pro 6.0.0-alpha2 by @fontawesome - https://fontawesome.com License - https://fontawesome.com/license (Commercial License) --><path d="M440.004 32H280.074C275.637 32 272.078 35.586 272.078 39.992C272.078 44.414 275.656 47.992 280.074 47.992H420.699L2.451 466.234C-5.016 473.695 6.266 485.031 13.758 477.543L432.01 59.297V199.922C432.01 204.344 435.588 207.922 440.004 207.922C444.422 207.922 448 204.344 448 199.922V39.992C448 35.578 444.426 32 440.004 32ZM167.443 210.75C170.566 213.871 175.629 213.871 178.752 210.75C181.875 207.625 181.875 202.562 178.752 199.438L13.764 34.449C6.303 26.984 -5.033 38.266 2.457 45.758L167.443 210.75ZM440.006 304.078C435.588 304.078 432.01 307.656 432.01 312.07V452.699L280.555 301.242C277.432 298.121 272.369 298.121 269.246 301.242C266.123 304.367 266.123 309.43 269.246 312.555L420.701 464.008H280.076C275.658 464.008 272.08 467.586 272.08 472.004S275.654 480 280.076 480H440.006C444.422 480 448 476.422 448 472.008V312.07C448 307.633 444.412 304.078 440.006 304.078Z"/></svg>
